app/img/icons/servises-icon-3.svg

<svg width="64" height="64" viewBox="0 0 64 64" fill="none" xmlns="http://www.w3.org/2000/svg">
<path d="M60.5262 37.7273C59.8387 37.4426 59.115 37.2982 58.3751 37.2982C56.7434 37.2982 55.2361 37.9946 54.1895 39.1615L52.9695 38.6562L49.4894 37.2147C49.9833 35.5616 50.2498 33.8113 50.2498 31.9998C50.2498 30.1883 49.9831 28.4381 49.4894 26.7849L52.9695 25.3435L54.1895 24.8381C55.2361 26.0051 56.7434 26.7014 58.3751 26.7014C59.115 26.7014 59.8387 26.5571 60.5262 26.2722C63.3916 25.0852 64.7574 21.7883 63.5704 18.9227C62.6964 16.8128 60.6559 15.4493 58.3721 15.4493C57.6322 15.4493 56.9085 15.5937 56.221 15.8786C53.9627 16.814 52.6372 19.0598 52.7572 21.3722L51.5301 21.8805L48.0511 23.3215C46.361 20.208 43.7915 17.6383 40.678 15.9483L42.119 12.4694L42.6268 11.2436C42.7251 11.2487 42.8238 11.2517 42.9228 11.2517C45.2066 11.2517 47.247 9.88836 48.1211 7.77836C49.308 4.91287 47.9424 1.61587 45.0769 0.428874C44.3893 0.144375 43.6656 0 42.9258 0C40.6419 0 38.6015 1.36337 37.7274 3.47337C36.792 5.73161 37.4428 8.25698 39.1628 9.80723L38.6563 11.0301L37.2148 14.5102C35.5617 14.0165 33.8114 13.7498 31.9999 13.7498C30.1884 13.7498 28.4382 14.0165 26.785 14.5102L25.3435 11.0301L24.8371 9.80723C26.557 8.25698 27.2078 5.73161 26.2724 3.47324C25.3983 1.36337 23.3577 0 21.0739 0C20.3341 0 19.6103 0.144375 18.9228 0.429249C16.0574 1.61625 14.6917 4.91312 15.8787 7.77874C16.7527 9.88861 18.7932 11.2521 21.0769 11.2521C21.1759 11.2521 21.2746 11.2491 21.3729 11.244L21.8807 12.4697L23.3217 15.9487C20.2082 17.6388 17.6386 20.2083 15.9486 23.3218L12.4696 21.8808L11.2425 21.3726C11.3625 19.0602 10.037 16.8143 7.77871 15.8788C7.09121 15.5941 6.36746 15.4497 5.62759 15.4497C3.34372 15.4497 1.30335 16.8131 0.429222 18.9231C-0.757651 21.7886 0.607971 25.0856 3.47347 26.2726C4.16096 26.5573 4.88471 26.7017 5.62459 26.7017C7.25633 26.7017 8.76358 26.0053 9.8102 24.8383L11.0302 25.3437L14.5103 26.7852C14.0164 28.4383 13.7499 30.1886 13.7499 32.0001C13.7499 33.8116 14.0166 35.5618 14.5103 37.2149L11.0301 38.6562L9.81008 39.1615C8.76346 37.9946 7.25621 37.2982 5.62446 37.2982C4.88459 37.2982 4.16084 37.4426 3.47334 37.7274C0.607971 38.9144 -0.757776 42.2113 0.429222 45.0769C1.30322 47.1868 3.34372 48.5503 5.62746 48.5503C6.36734 48.5503 7.09108 48.4059 7.77858 48.121C10.0368 47.1857 11.3623 44.9398 11.2423 42.6274L12.4694 42.1192L15.9484 40.6782C17.6386 43.7917 20.2081 46.3613 23.3216 48.0513L21.8806 51.5303L21.3728 52.756C21.2744 52.7509 21.1758 52.7479 21.0768 52.7479C18.7929 52.7479 16.7526 54.1113 15.8784 56.2213C14.6916 59.0868 16.0572 62.3838 18.9227 63.5708C19.6102 63.8555 20.3339 63.9999 21.0738 63.9999C23.3577 63.9999 25.3981 62.6365 26.2722 60.5265C27.2075 58.2683 26.5568 55.7429 24.8368 54.1926L25.3433 52.9698L26.7848 49.4897C28.4379 49.9834 30.1882 50.25 31.9997 50.25C33.8112 50.25 35.5614 49.9834 37.2145 49.4897L38.656 52.9698L39.1625 54.1926C37.4425 55.7429 36.7918 58.2683 37.7272 60.5266C38.6012 62.6365 40.6416 64 42.9254 64C43.6653 64 44.389 63.8556 45.0765 63.5708C47.9419 62.3838 49.3076 59.0869 48.1206 56.2213C47.2466 54.1114 45.2061 52.7479 42.9224 52.7479C42.8234 52.7479 42.7248 52.7509 42.6264 52.756L42.1186 51.5303L40.6776 48.0513C43.7911 46.3612 46.3608 43.7917 48.0508 40.6782L51.5298 42.1192L52.7569 42.6274C52.6369 44.9398 53.9624 47.1857 56.2206 48.1212C56.9081 48.4059 57.6319 48.5503 58.3717 48.5503C60.6556 48.5503 62.696 47.1869 63.5701 45.0769C64.7574 42.2113 63.3919 38.9143 60.5262 37.7273ZM31.9999 46.4998C24.0047 46.4998 17.4999 39.995 17.4999 31.9998C17.4999 24.0046 24.0047 17.4998 31.9999 17.4998C39.9952 17.4998 46.4999 24.0046 46.4999 31.9998C46.4999 39.995 39.995 46.4998 31.9999 46.4998Z" fill="black"/>
<path d="M60.5262 37.7273C59.8387 37.4426 59.115 37.2982 58.3751 37.2982C56.7434 37.2982 55.2361 37.9946 54.1895 39.1615L52.9695 38.6562L49.4894 37.2147C49.9833 35.5616 50.2498 33.8113 50.2498 31.9998C50.2498 30.1883 49.9831 28.4381 49.4894 26.7849L52.9695 25.3435L54.1895 24.8381C55.2361 26.0051 56.7434 26.7014 58.3751 26.7014C59.115 26.7014 59.8387 26.5571 60.5262 26.2722C63.3916 25.0852 64.7574 21.7883 63.5704 18.9227C62.6964 16.8128 60.6559 15.4493 58.3721 15.4493C57.6322 15.4493 56.9085 15.5937 56.221 15.8786C53.9627 16.814 52.6372 19.0598 52.7572 21.3722L51.5301 21.8805L48.0511 23.3215C46.361 20.208 43.7915 17.6383 40.678 15.9483L42.119 12.4694L42.6268 11.2436C42.7251 11.2487 42.8238 11.2517 42.9228 11.2517C45.2066 11.2517 47.247 9.88836 48.1211 7.77836C49.308 4.91287 47.9424 1.61587 45.0769 0.428874C44.3893 0.144375 43.6656 0 42.9258 0C40.6419 0 38.6015 1.36337 37.7274 3.47337C36.792 5.73161 37.4428 8.25698 39.1628 9.80723L38.6563 11.0301L37.2148 14.5102C35.5617 14.0165 33.8114 13.7498 31.9999 13.7498C30.1884 13.7498 28.4382 14.0165 26.785 14.5102L25.3435 11.0301L24.8371 9.80723C26.557 8.25698 27.2078 5.73161 26.2724 3.47324C25.3983 1.36337 23.3577 0 21.0739 0C20.3341 0 19.6103 0.144375 18.9228 0.429249C16.0574 1.61625 14.6917 4.91312 15.8787 7.77874C16.7527 9.88861 18.7932 11.2521 21.0769 11.2521C21.1759 11.2521 21.2746 11.2491 21.3729 11.244L21.8807 12.4697L23.3217 15.9487C20.2082 17.6388 17.6386 20.2083 15.9486 23.3218L12.4696 21.8808L11.2425 21.3726C11.3625 19.0602 10.037 16.8143 7.77871 15.8788C7.09121 15.5941 6.36746 15.4497 5.62759 15.4497C3.34372 15.4497 1.30335 16.8131 0.429222 18.9231C-0.757651 21.7886 0.607971 25.0856 3.47347 26.2726C4.16096 26.5573 4.88471 26.7017 5.62459 26.7017C7.25633 26.7017 8.76358 26.0053 9.8102 24.8383L11.0302 25.3437L14.5103 26.7852C14.0164 28.4383 13.7499 30.1886 13.7499 32.0001C13.7499 33.8116 14.0166 35.5618 14.5103 37.2149L11.0301 38.6562L9.81008 39.1615C8.76346 37.9946 7.25621 37.2982 5.62446 37.2982C4.88459 37.2982 4.16084 37.4426 3.47334 37.7274C0.607971 38.9144 -0.757776 42.2113 0.429222 45.0769C1.30322 47.1868 3.34372 48.5503 5.62746 48.5503C6.36734 48.5503 7.09108 48.4059 7.77858 48.121C10.0368 47.1857 11.3623 44.9398 11.2423 42.6274L12.4694 42.1192L15.9484 40.6782C17.6386 43.7917 20.2081 46.3613 23.3216 48.0513L21.8806 51.5303L21.3728 52.756C21.2744 52.7509 21.1758 52.7479 21.0768 52.7479C18.7929 52.7479 16.7526 54.1113 15.8784 56.2213C14.6916 59.0868 16.0572 62.3838 18.9227 63.5708C19.6102 63.8555 20.3339 63.9999 21.0738 63.9999C23.3577 63.9999 25.3981 62.6365 26.2722 60.5265C27.2075 58.2683 26.5568 55.7429 24.8368 54.1926L25.3433 52.9698L26.7848 49.4897C28.4379 49.9834 30.1882 50.25 31.9997 50.25C33.8112 50.25 35.5614 49.9834 37.2145 49.4897L38.656 52.9698L39.1625 54.1926C37.4425 55.7429 36.7918 58.2683 37.7272 60.5266C38.6012 62.6365 40.6416 64 42.9254 64C43.6653 64 44.389 63.8556 45.0765 63.5708C47.9419 62.3838 49.3076 59.0869 48.1206 56.2213C47.2466 54.1114 45.2061 52.7479 42.9224 52.7479C42.8234 52.7479 42.7248 52.7509 42.6264 52.756L42.1186 51.5303L40.6776 48.0513C43.7911 46.3612 46.3608 43.7917 48.0508 40.6782L51.5298 42.1192L52.7569 42.6274C52.6369 44.9398 53.9624 47.1857 56.2206 48.1212C56.9081 48.4059 57.6319 48.5503 58.3717 48.5503C60.6556 48.5503 62.696 47.1869 63.5701 45.0769C64.7574 42.2113 63.3919 38.9143 60.5262 37.7273ZM31.9999 46.4998C24.0047 46.4998 17.4999 39.995 17.4999 31.9998C17.4999 24.0046 24.0047 17.4998 31.9999 17.4998C39.9952 17.4998 46.4999 24.0046 46.4999 31.9998C46.4999 39.995 39.995 46.4998 31.9999 46.4998Z" fill="url(#paint0_linear)"/>
<path d="M32 21.2498C26.0725 21.2498 21.25 26.0722 21.25 31.9997C21.25 37.9272 26.0725 42.7497 32 42.7497C37.9275 42.7497 42.75 37.9272 42.75 31.9997C42.75 26.0722 37.9275 21.2498 32 21.2498ZM33.875 36.1247H30.125V27.8747H33.875V36.1247Z" fill="black"/>
<path d="M32 21.2498C26.0725 21.2498 21.25 26.0722 21.25 31.9997C21.25 37.9272 26.0725 42.7497 32 42.7497C37.9275 42.7497 42.75 37.9272 42.75 31.9997C42.75 26.0722 37.9275 21.2498 32 21.2498ZM33.875 36.1247H30.125V27.8747H33.875V36.1247Z" fill="url(#paint1_linear)"/>
<defs>
<linearGradient id="paint0_linear" x1="31.9998" y1="0" x2="31.9998" y2="64" gradientUnits="userSpaceOnUse">
<stop stop-color="#EF8080"/>
<stop offset="1" stop-color="#F0145A"/>
</linearGradient>
<linearGradient id="paint1_linear" x1="32" y1="21.2498" x2="32" y2="42.7497" gradientUnits="userSpaceOnUse">
<stop stop-color="#EF8080"/>
<stop offset="1" stop-color="#F0145A"/>
</linearGradient>
</defs>
</svg>

<svg xmlns="http://www.w3.org/2000/svg" xmlns:xlink="http://www.w3.org/1999/xlink" width="64" height="64" fill="none" xmlns:v="https://vecta.io/nano"><use xlink:href="#C" fill="#000"/><use xlink:href="#C" fill="url(#A)"/><use xlink:href="#D" fill="#000"/><use xlink:href="#D" fill="url(#B)"/><defs><linearGradient id="A" x1="32" y1="0" x2="32" y2="64" gradientUnits="userSpaceOnUse"><stop stop-color="#ef8080"/><stop offset="1" stop-color="#f0145a"/></linearGradient><linearGradient id="B" x1="32" y1="21.25" x2="32" y2="42.75" gradientUnits="userSpaceOnUse"><stop stop-color="#ef8080"/><stop offset="1" stop-color="#f0145a"/></linearGradient><path id="C" d="M60.526 37.727c-.687-.285-1.411-.429-2.151-.429a5.61 5.61 0 0 0-4.186 1.863l-1.22-.505-3.48-1.441A18.19 18.19 0 0 0 50.25 32c0-1.811-.267-3.562-.76-5.215l3.48-1.441 1.22-.505a5.61 5.61 0 0 0 4.186 1.863 5.59 5.59 0 0 0 2.151-.429c2.865-1.187 4.231-4.484 3.044-7.35a5.61 5.61 0 0 0-5.198-3.473 5.59 5.59 0 0 0-2.151.429c-2.258.935-3.584 3.181-3.464 5.494l-1.227.508-3.479 1.441a18.38 18.38 0 0 0-7.373-7.373l1.441-3.479.508-1.226.296.008a5.61 5.61 0 0 0 5.198-3.473c1.187-2.865-.179-6.162-3.044-7.349A5.6 5.6 0 0 0 42.926 0a5.61 5.61 0 0 0-5.198 3.473c-.935 2.258-.285 4.784 1.435 6.334l-.506 1.223-1.442 3.48c-1.653-.494-3.403-.76-5.215-.76s-3.562.267-5.215.76l-1.442-3.48-.506-1.223c1.72-1.55 2.371-4.076 1.435-6.334A5.61 5.61 0 0 0 21.074 0a5.59 5.59 0 0 0-2.151.429c-2.865 1.187-4.231 4.484-3.044 7.349a5.61 5.61 0 0 0 5.198 3.473l.296-.008.508 1.226 1.441 3.479a18.38 18.38 0 0 0-7.373 7.373l-3.479-1.441-1.227-.508c.12-2.312-1.205-4.558-3.464-5.494-.687-.285-1.411-.429-2.151-.429a5.61 5.61 0 0 0-5.198 3.473c-1.187 2.865.179 6.162 3.044 7.349.687.285 1.411.429 2.151.429a5.61 5.61 0 0 0 4.186-1.863l1.22.505 3.48 1.442A18.19 18.19 0 0 0 13.75 32c0 1.811.267 3.562.76 5.215l-3.48 1.441-1.22.505a5.61 5.61 0 0 0-4.186-1.863c-.74 0-1.464.144-2.151.429C.608 38.914-.758 42.211.429 45.077a5.61 5.61 0 0 0 5.198 3.473 5.59 5.59 0 0 0 2.151-.429c2.258-.935 3.584-3.181 3.464-5.494l1.227-.508 3.479-1.441a18.38 18.38 0 0 0 7.373 7.373l-1.441 3.479-.508 1.226-.296-.008a5.61 5.61 0 0 0-5.198 3.473c-1.187 2.865.179 6.163 3.044 7.349.688.285 1.411.429 2.151.429a5.61 5.61 0 0 0 5.198-3.473c.935-2.258.285-4.784-1.435-6.334l.506-1.223 1.442-3.48c1.653.494 3.403.76 5.215.76s3.562-.267 5.215-.76l1.441 3.48.507 1.223c-1.72 1.55-2.371 4.076-1.435 6.334A5.61 5.61 0 0 0 42.925 64c.74 0 1.464-.144 2.151-.429 2.865-1.187 4.231-4.484 3.044-7.349a5.61 5.61 0 0 0-5.198-3.473l-.296.008-.508-1.226-1.441-3.479a18.38 18.38 0 0 0 7.373-7.373l3.479 1.441 1.227.508c-.12 2.312 1.206 4.558 3.464 5.494.688.285 1.411.429 2.151.429a5.61 5.61 0 0 0 5.198-3.473c1.187-2.866-.178-6.163-3.044-7.35zM32 46.5A14.52 14.52 0 0 1 17.5 32 14.52 14.52 0 0 1 32 17.5 14.52 14.52 0 0 1 46.5 32 14.52 14.52 0 0 1 32 46.5z"/><path id="D" d="M32 21.25c-5.927 0-10.75 4.822-10.75 10.75S26.073 42.75 32 42.75 42.75 37.927 42.75 32 37.928 21.25 32 21.25zm1.875 14.875h-3.75v-8.25h3.75v8.25z"/></defs></svg>
